X:103
T:The Manchester Hornpipe    Allan's #103   pp26
C:Trad/Anon
B:Allan's Irish Fiddler (pub. Mozart Allen,  Glascow) date unknown
Z:FROM ALLAN'S TO NOTEWORTHY, FROM NOTEWORTHY TO ABC, MIDI AND .TXT BY VINCE
BRENNAN Dec. 2002 (HTTP://WWW.SOSYOURMOM.COM)
I:abc2nwc
M:4/4
L:1/8
K:D
(3(ABc)|d3/2c/2d3/2A/2 F3/2A/2d3/2f/2|e3/2d/2c3/2B/2 A2(f3/2g/2)|a3/2f/2a3/2f/2 b3/2a/2g3/2f/2|e3/2d/2c3/2B/2 A2(f3/2e/2)|
d3/2c/2d3/2A/2 F3/2A/2d3/2f/2|e3/2d/2c3/2B/2 A2(f3/2g/2)|a3/2f/2d3/2f/2 b3/2g/2e3/2c/2|d2d2d2:|
|: (3(efg)|a3/2^g/2a3/2f/2 d3/2e/2f3/2a/2|b3/2a/2b3/2g/2e2f3/2g/2|a3/2f/2a3/2f/2 b3/2a/2g3/2f/2|e3/2d/2c3/2B/2A2f3/2e/2|
d3/2c/2d3/2A/2 F3/2A/2d3/2f/2|e3/2d/2c3/2B/2A2(f3/2g/2)|a3/2f/2d3/2f/2 b3/2g/2e3/2c/2|d2d2d2:|
